public/images/icons/32x32/numerique_32_white.svg

<svg height="32" viewBox="0 0 32 32" width="32" xmlns="http://www.w3.org/2000/svg"><g fill="#fff" stroke="#fff" transform="translate(7 5)"><path d="m15.125 18.3333333h-12.83333333c-1.28333334 0-2.29166667-1.0083333-2.29166667-2.2916666v-13.75000003c0-1.28333334 1.00833333-2.29166667 2.29166667-2.29166667h12.83333333c1.2833333 0 2.2916667 1.00833333 2.2916667 2.29166667v13.75000003c0 1.2833333-1.0083334 2.2916666-2.2916667 2.2916666zm-12.83333333-17.41666663c-.77916667 0-1.375.59583333-1.375 1.375v13.75000003c0 .7791666.59583333 1.375 1.375 1.375h12.83333333c.7791667 0 1.375-.5958334 1.375-1.375v-13.75000003c0-.77916667-.5958333-1.375-1.375-1.375z" stroke-width=".3"/><path d="m14.7666667 12h-12.13333337c-.56 0-.93333333-.4444444-.93333333-1.1111111v-7.77777779c0-.66666667.37333333-1.11111111.93333333-1.11111111h12.13333337c.56 0 .9333333.44444444.9333333 1.11111111v7.77777779c0 .6666667-.3733333 1.1111111-.9333333 1.1111111zm-12.0666667-9v8h11.954023.045977l-.045977-8z" stroke-width=".2"/><g stroke-width=".3"><circle cx="3.208" cy="14.75" r="1"/><path d="m14.2083333 15.2083333h-4.5833333c-.275 0-.45833333-.1833333-.45833333-.4583333s.18333333-.4583333.45833333-.4583333h4.5833333c.275 0 .4583334.1833333.4583334.4583333s-.1833334.4583333-.4583334.4583333zm.9166667 6.7916667h-12.83333333c-.77916667 0-1.375-.5958333-1.375-1.375v-3.2083333h15.58333333v3.2083333c0 .7791667-.5958333 1.375-1.375 1.375zm-13.29166667-3.6666667v2.2916667c0 .275.18333334.4583333.45833334.4583333h12.83333333c.275 0 .4583333-.1833333.4583333-.4583333v-2.2916667z"/><circle cx="14.208" cy="19.708" r="1"/></g></g></svg>

<svg xmlns="http://www.w3.org/2000/svg" width="32" height="32" viewBox="0 0 32 32">
  <g fill="#FFF" stroke="#FFF" transform="translate(7 5)">
    <path stroke-width=".3" d="M15.125,18.3333333 L2.29166667,18.3333333 C1.00833333,18.3333333 0,17.325 0,16.0416667 L0,2.29166667 C0,1.00833333 1.00833333,0 2.29166667,0 L15.125,0 C16.4083333,0 17.4166667,1.00833333 17.4166667,2.29166667 L17.4166667,16.0416667 C17.4166667,17.325 16.4083333,18.3333333 15.125,18.3333333 Z M2.29166667,0.916666667 C1.5125,0.916666667 0.916666667,1.5125 0.916666667,2.29166667 L0.916666667,16.0416667 C0.916666667,16.8208333 1.5125,17.4166667 2.29166667,17.4166667 L15.125,17.4166667 C15.9041667,17.4166667 16.5,16.8208333 16.5,16.0416667 L16.5,2.29166667 C16.5,1.5125 15.9041667,0.916666667 15.125,0.916666667 L2.29166667,0.916666667 Z"/>
    <path stroke-width=".2" d="M14.7666667,12 L2.63333333,12 C2.07333333,12 1.7,11.5555556 1.7,10.8888889 L1.7,3.11111111 C1.7,2.44444444 2.07333333,2 2.63333333,2 L14.7666667,2 C15.3266667,2 15.7,2.44444444 15.7,3.11111111 L15.7,10.8888889 C15.7,11.5555556 15.3266667,12 14.7666667,12 Z M2.7,3 L2.7,11 L14.654023,11 C14.654023,11 14.7,11 14.7,11 L14.654023,3 L2.7,3 Z"/>
    <circle cx="3.208" cy="14.75" r="1" stroke-width=".3"/>
    <path stroke-width=".3" d="M14.2083333 15.2083333L9.625 15.2083333C9.35 15.2083333 9.16666667 15.025 9.16666667 14.75 9.16666667 14.475 9.35 14.2916667 9.625 14.2916667L14.2083333 14.2916667C14.4833333 14.2916667 14.6666667 14.475 14.6666667 14.75 14.6666667 15.025 14.4833333 15.2083333 14.2083333 15.2083333zM15.125 22L2.29166667 22C1.5125 22 .916666667 21.4041667.916666667 20.625L.916666667 17.4166667 16.5 17.4166667 16.5 20.625C16.5 21.4041667 15.9041667 22 15.125 22zM1.83333333 18.3333333L1.83333333 20.625C1.83333333 20.9 2.01666667 21.0833333 2.29166667 21.0833333L15.125 21.0833333C15.4 21.0833333 15.5833333 20.9 15.5833333 20.625L15.5833333 18.3333333 1.83333333 18.3333333z"/>
    <circle cx="14.208" cy="19.708" r="1" stroke-width=".3"/>
  </g>
</svg>
